src/svg/monochrome/20/verification-in-progress.svg

<svg width="20" height="20" viewBox="0 0 20 20" fill="none" xmlns="http://www.w3.org/2000/svg">
<g id="verification-in-progress">
<path id="Union" d="M10.4521 1.21973C15.0975 1.45506 18.7919 5.29621 18.792 10C18.7919 14.8554 14.8555 18.792 10 18.792L9.78027 18.7891C9.27038 18.7765 8.77071 18.7201 8.28516 18.624C7.94664 18.557 7.72599 18.2282 7.79297 17.8896C7.86004 17.5513 8.18896 17.3307 8.52734 17.3975C8.88406 17.468 9.25054 17.5139 9.62402 17.5322L10 17.542C14.1651 17.542 17.5419 14.1651 17.542 10C17.5419 5.96495 14.3726 2.66955 10.3877 2.46777L10 2.45801L9.62402 2.46777C9.2505 2.48606 8.88409 2.531 8.52734 2.60156L8.46387 2.61133C8.14861 2.64092 7.85575 2.42672 7.79297 2.10938C7.72642 1.77104 7.94683 1.44297 8.28516 1.37598L8.49414 1.33691C8.98378 1.25236 9.48706 1.20802 10 1.20801L10.4521 1.21973ZM2.86133 14.0186C3.14806 13.8266 3.53642 13.9029 3.72852 14.1895C4.21045 14.9093 4.81257 15.5428 5.50684 16.0586L5.81055 16.2715L5.86133 16.3105C6.10518 16.5125 6.16134 16.8699 5.98145 17.1387C5.80146 17.4073 5.4495 17.4922 5.16992 17.3438L5.11426 17.3105L4.93652 17.1875C4.05391 16.5647 3.29096 15.7832 2.68945 14.8848C2.49775 14.598 2.57471 14.2105 2.86133 14.0186ZM12.6543 7.08887C12.8815 6.82919 13.2763 6.80238 13.5361 7.0293C13.7958 7.25647 13.8227 7.65133 13.5957 7.91113L9.22168 12.9111C9.10302 13.0468 8.9312 13.125 8.75098 13.125C8.57082 13.1249 8.39889 13.0467 8.28027 12.9111L6.4043 10.7666L6.36523 10.7168C6.18191 10.4585 6.22034 10.0978 6.46387 9.88477C6.70749 9.67187 7.06927 9.68221 7.30078 9.89844L7.3457 9.94336L8.75098 11.5498L12.6543 7.08887ZM2.10938 7.79297C2.4479 7.85994 2.66838 8.18882 2.60156 8.52734L2.53906 8.88672C2.48545 9.24952 2.45802 9.62166 2.45801 10C2.45802 10.3781 2.4855 10.7497 2.53906 11.1123L2.60156 11.4727L2.61133 11.5361C2.64093 11.8514 2.42673 12.1442 2.10938 12.207C1.79226 12.2694 1.48419 12.0799 1.3916 11.7773L1.37598 11.7148L1.33691 11.5059C1.25236 11.0162 1.20802 10.5129 1.20801 10C1.20802 9.41381 1.26619 8.84022 1.37598 8.28516L1.3916 8.22266C1.48419 7.92007 1.79226 7.7306 2.10938 7.79297ZM5.11426 2.68945C5.40106 2.49745 5.78939 2.57458 5.98145 2.86133C6.17343 3.14812 6.09727 3.53646 5.81055 3.72852C4.98785 4.2793 4.2793 4.98785 3.72852 5.81055C3.53646 6.09726 3.14811 6.17343 2.86133 5.98145C2.57458 5.78939 2.49745 5.40106 2.68945 5.11426C3.33103 4.15603 4.15603 3.33103 5.11426 2.68945Z" fill="#3D3C3C"/>
</g>
</svg>

<svg xmlns="http://www.w3.org/2000/svg" width="20" height="20" fill="currentColor" viewBox="0 0 20 20">
  <path d="M10.452 1.22A8.792 8.792 0 0 1 10 18.792l-.22-.003a8.82 8.82 0 0 1-1.495-.165.625.625 0 0 1 .242-1.226c.357.07.724.116 1.097.134l.376.01a7.542 7.542 0 0 0 .388-15.074L10 2.458l-.376.01c-.373.018-.74.063-1.097.134l-.063.01a.626.626 0 0 1-.179-1.236l.21-.04A8.886 8.886 0 0 1 10 1.208l.452.012Zm-7.59 12.799a.625.625 0 0 1 .867.17 7.59 7.59 0 0 0 1.778 1.87l.304.212.05.04a.625.625 0 0 1-.691 1.033l-.056-.034-.177-.122a8.84 8.84 0 0 1-2.248-2.303.625.625 0 0 1 .172-.866Zm9.792-6.93a.625.625 0 0 1 .942.822l-4.374 5a.626.626 0 0 1-.942 0l-1.876-2.144-.039-.05a.626.626 0 0 1 .936-.819l.045.045L8.75 11.55l3.903-4.461ZM2.11 7.793a.625.625 0 0 1 .493.734l-.063.36a7.618 7.618 0 0 0 0 2.225l.063.36.01.064a.626.626 0 0 1-1.22.241l-.016-.062-.04-.21a8.848 8.848 0 0 1 .04-3.22l.016-.062a.625.625 0 0 1 .717-.43Zm3.005-5.104a.625.625 0 0 1 .697 1.04A7.587 7.587 0 0 0 3.729 5.81a.625.625 0 0 1-1.04-.697A8.837 8.837 0 0 1 5.114 2.69Z"/>
</svg>
